X: 101
T:Maudabawn Chapel
M:C|
C:Ed Reavy (1898-1988)
R:reel
Z:flute version arr by Henrik Norbeck,  21/6/1999
K:Edor
~G3D ~E2DB|GABd eBdB|GABd ed (3Bcd|ga{c'}bg ea{c'}af|
ga{c'}bg ef{a}ge|dged B^cde|~g2fa gedB|AB{c}BA GE{A}ED:|
|:~E2BE dEBE|{A}Ed^cB {c}AFDF|~E3F {A}GFGB|AF~F2 DF~F2|
EB{c}BA ~B3A|BAGA B^cde|~f3a gfe^c|dB{c}AF {A}GE{A}ED:|
"Variations:"
~g2fg egdB|GABd (3efg dB|GA (3Bcd edBd|ga{c'}ag ea~a2|
gb{c'}ag e2~e2|dged B^cde|gafa gedB|AB{c}BA GE{A}ED:|
|:~E2BE ~E2BE|~E2BE {c}AFDF|EDEF ~G3B|AF~F2 dF{c}AF|
EB{c}BA B^cdA|BAGA B^cde|f2{c'}af gfe^c|dB{c}AF GE{A}ED:|

